X:10
T: Bonny Portmore, S. 50
N: I0509
O: Irland
S: O BOYLE, Sean: 25 Irish Folksongs, Dublin 1976]
R: erzhlendes, nostalgisches Lied]
M: 3/4
L: 1/16
K: D
G2E2 | D4D4(3D2E2G2 | A4A4(3G2A2B2 | =c4B4A2G2 | E8
G2E2 | D4D4(3D2E2G2 | A4B4A2G2 | E4D4D4 | D8
(3G2A2B2 | =c4c4B2A2 | B4B4A2G2 | =c4B4A2G2 | E8
(3G2A2B2 | =c4c4B2A2 | G2B2d4B2A2 | G3E=C2D2E3C | D8

@@@ Tune index: 7285
